X:1
T:How blest is he who ne’er consents
T:John Bellamy
T:p1, A System of Divine Musick, London: 1745
T:This edition by Edmund Gooch released into the public domain, August 2013.
T:How blest is he who ne’er consents
T:PSALM I.
C:John Bellamy
Z:p1, A System of Divine
Z:Musick, London: 1745
%%score [ 1 2 3 4 ]
L:1/8
M:2/2
K:C
V:1 treble nm="SOPRANO" snm="S."
V:2 treble nm="ALTO" snm="A."
V:3 treble-8 transpose=-12 nm="TENOR" snm="T."
V:4 bass nm="BASS" snm="B."
V:1
 z4 A4 | B4 A4 | ^G4 A4 | A4 A4 | ^G8 | z4 ^G4 | A4 ^G4 | A4 G4 | G8 | z4 G4 | (A2 B2) c4 | B4 c4 | %12
w: Like|some fair|tree, which|fed by|streams|With|time- ly|fruit does|bend,|He|still _ shall|flou- rish,|
w: How|blest is|he who|ne’er con-|sents|By|ill ad-|vice to|walk;|Nor|stands _ in|sin- ners|
w: But|makes the|per- fect|law of|God|His|busi- ness|and de-|light;|De-|vout- * ly|reads there-|
 d4 (c2 BA) | ^G8 | z4 A4 | A4 B4 | (B3 A) ^G4 | A8 |] %18
w: and suc- * *|cess|All|his de-|signs _ at-|tend.|
w: ways, nor _ _|sits|Where|men pro-|fane- * ly|talk.|
w: in by _ _|day|And|me- di-|tates _ by|night.|
V:2
 z4 E4 | E4 E4 | (E3 D) C4 | (C3 D) E4 | E8 | z4 E4 | E4 E4 | C4 B,4 | C8 | z4 C4 | C4 C4 | E4 E4 | %12
w: Like|some fair|tree, _ which|fed _ by|streams|With|time- ly|fruit does|bend,|He|still shall|flou- rish,|
w: How|blest is|he _ who|ne’er _ con-|sents|By|ill ad-|vice to|walk;|Nor|stands in|sin- ners|
w: But|makes the|per- * fect|law _ of|God|His|busi- ness|and de-|light;|De-|vout- ly|reads there-|
 F4 E4 | E8 | z4 F4 | D4 E4 | F4 E4 | E8 |] %18
w: and suc-|cess|All|his de-|signs at-|tend.|
w: ways, nor|sits|Where|men pro-|fane- ly|talk.|
w: in by|day|And|me- di-|tates by|night.|
V:3
 z4 A4 | d4 c4 | B4 A4 | (e3 d) c4 | B8 | z4 B4 | c4 B4 | A4 d4 | e8 | z4 e4 | (A2 ^G2) ^F4 | %11
w: Like|some fair|tree, which|fed _ by|streams|With|time- ly|fruit does|bend,|He|still _ shall|
w: How|blest is|he who|ne’er _ con-|sents|By|ill ad-|vice to|walk;|Nor|stands _ in|
w: But|makes the|per- fect|law _ of|God|His|busi- ness|and de-|light;|De-|vout- * ly|
 E4 ^G4 | A4 c4 | B8 | z4 d4 | c4 ^G4 | (A>B c2) B4 | A8 |] %18
w: flou- rish,|and suc-|cess|All|his de-|signs _ _ at-|tend.|
w: sin- ners|ways, nor|sits|Where|men pro-|fane- * * ly|talk.|
w: reads there-|in by|day|And|me- di-|tates _ _ by|night.|
V:4
 z4 A,4 | ^G,4 A,4 | E,4 F,4 | A,4 A,,4 | E,8 | z4 E,4 | A,4 E,4 | F,4 G,4 | C,8 | %9
w: Like|some fair|tree, which|fed by|streams|With|time- ly|fruit does|bend,|
w: How|blest is|he who|ne’er con-|sents|By|ill ad-|vice to|walk;|
w: But|makes the|per- fect|law of|God|His|busi- ness|and de-|light;|
"^Ungodly men, and their attemptsNo lasting root shall find:Untimely blasted, and dispers’dLike chaff before the wind.""^The alto and tenor parts are given in the alto and tenor clefs respectively in the source. The notes in the soprano part onthe second beat of bar 8 and in bar 9 are both printed in the source as G#, but have here been emended to G§ as moreconsistent with the harmony. The first verse of text is underlaid in the source, with all subsequent verses printed after themusic: of these, verses 2 and 3 have here been underlaid additionally." z4 C,4 | %10
w: He|
w: Nor|
w: De-|
 (C2 B,2) A,4 | %11
w: still _ shall|
w: stands _ in|
w: vout- * ly|
 G,4"^Their guilt shall strike the wicked dumbBefore their judge’s face:No formal hypocrite shall thenAmong the saints have place." E,4 | %12
w: flou- rish,|
w: sin- ners|
w: reads there-|
 D,4 A,4 | E,8 | z4 D,4 | %15
w: and suc-|cess|All|
w: ways, nor|sits|Where|
w: in by|day|And|
"^For God approves the just man’s ways,To happiness they tend;But sinners, and the paths they tread,Shall both in ruin end." F,4 E,4 | %16
w: his de-|
w: men pro-|
w: me- di-|
 D,4 E,4 | A,,8 |] %18
w: signs at-|tend.|
w: fane- ly|talk.|
w: tates by|night.|

